src/assets/img/us.svg

<?xml version="1.0" encoding="UTF-8"?>
<!DOCTYPE svg PUBLIC "-//W3C//DTD SVG 1.1//EN" "http://www.w3.org/Graphics/SVG/1.1/DTD/svg11.dtd">
<!-- Creator: CorelDRAW 2019 (64-Bit) -->
<svg xmlns="http://www.w3.org/2000/svg" xml:space="preserve" width="4.0439mm" height="7.391mm" version="1.1" style="shape-rendering:geometricPrecision; text-rendering:geometricPrecision; image-rendering:optimizeQuality; fill-rule:evenodd; clip-rule:evenodd"
viewBox="0 0 14.04 25.66"
 xmlns:xlink="http://www.w3.org/1999/xlink">
 <defs>
  <style type="text/css">
   <![CDATA[
    .fil0 {fill:black;fill-rule:nonzero}
   ]]>
  </style>
 </defs>
 <g id="Layer_x0020_1">
  <metadata id="CorelCorpID_0Corel-Layer"/>
  <path class="fil0" d="M6.23 4.24c-0.4,0 -0.78,0.02 -1.14,0.07 -0.37,0.05 -0.73,0.12 -1.09,0.21 -0.36,0.09 -0.72,0.22 -1.09,0.37 -0.37,0.15 -0.76,0.34 -1.15,0.55l-0.34 0.19 -1.41 -3.85 0.25 -0.14c0.44,-0.25 0.92,-0.48 1.41,-0.67 0.5,-0.2 1.03,-0.37 1.59,-0.52 0.56,-0.15 1.13,-0.26 1.71,-0.33 0.58,-0.07 1.17,-0.11 1.75,-0.11 1.43,0 2.61,0.2 3.56,0.6 0.95,0.4 1.7,0.91 2.26,1.52 0.28,0.31 0.52,0.63 0.72,0.97 0.2,0.34 0.35,0.7 0.46,1.07 0.11,0.36 0.19,0.71 0.24,1.07 0.05,0.36 0.08,0.7 0.08,1.04 0,0.41 -0.04,0.81 -0.12,1.18 -0.08,0.38 -0.19,0.74 -0.35,1.07 -0.15,0.32 -0.32,0.64 -0.51,0.94 -0.19,0.3 -0.4,0.59 -0.63,0.87 -0.22,0.27 -0.45,0.53 -0.7,0.79 -0.24,0.26 -0.49,0.51 -0.75,0.75 -0.25,0.23 -0.49,0.47 -0.72,0.71 -0.24,0.24 -0.46,0.48 -0.67,0.72 -0.21,0.24 -0.4,0.48 -0.58,0.73 -0.17,0.25 -0.33,0.51 -0.47,0.77 -0.13,0.25 -0.23,0.52 -0.3,0.8 -0.07,0.28 -0.1,0.59 -0.1,0.91l0 0.4 0.01 0.19 0.02 0.18 0.07 0.39 -4.27 0 -0.05 -0.27c-0.03,-0.13 -0.05,-0.25 -0.06,-0.38 -0.02,-0.14 -0.04,-0.27 -0.05,-0.4l-0.03 -0.4 -0.01 -0.38c0,-0.4 0.03,-0.78 0.1,-1.14 0.07,-0.36 0.17,-0.71 0.31,-1.03 0.13,-0.32 0.28,-0.62 0.45,-0.9 0.17,-0.29 0.35,-0.56 0.56,-0.83 0.2,-0.26 0.41,-0.52 0.62,-0.75 0.22,-0.25 0.45,-0.48 0.67,-0.7 0.22,-0.22 0.44,-0.43 0.65,-0.65 0.22,-0.23 0.42,-0.44 0.6,-0.65 0.19,-0.21 0.36,-0.42 0.51,-0.64 0.15,-0.21 0.29,-0.43 0.41,-0.65 0.11,-0.21 0.2,-0.42 0.25,-0.65 0.06,-0.23 0.08,-0.46 0.08,-0.71 0,-0.34 -0.06,-0.64 -0.17,-0.91 -0.11,-0.27 -0.28,-0.51 -0.51,-0.73 -0.22,-0.21 -0.5,-0.37 -0.84,-0.48 -0.35,-0.11 -0.77,-0.17 -1.26,-0.17zm-1.23 -0.6c0.41,-0.05 0.82,-0.08 1.23,-0.08 0.55,0 1.04,0.07 1.46,0.2 0.44,0.14 0.81,0.35 1.1,0.63 0.29,0.28 0.52,0.6 0.66,0.96 0.15,0.36 0.22,0.75 0.22,1.17 0,0.3 -0.04,0.6 -0.11,0.88 -0.07,0.28 -0.18,0.55 -0.32,0.81 -0.13,0.24 -0.28,0.48 -0.46,0.72 -0.17,0.23 -0.35,0.46 -0.56,0.69 -0.21,0.23 -0.41,0.46 -0.62,0.67 -0.21,0.22 -0.43,0.44 -0.66,0.67 -0.22,0.22 -0.44,0.44 -0.64,0.67 -0.21,0.23 -0.41,0.47 -0.59,0.72 -0.18,0.24 -0.36,0.49 -0.51,0.76 -0.16,0.27 -0.29,0.54 -0.41,0.83 -0.12,0.28 -0.21,0.57 -0.26,0.89 -0.06,0.32 -0.09,0.66 -0.09,1.02l0.01 0.34 0.03 0.37 0.05 0.44 2.95 0 -0 -0.49c0,-0.37 0.04,-0.72 0.12,-1.06 0.08,-0.34 0.2,-0.66 0.35,-0.96 0.15,-0.29 0.32,-0.57 0.51,-0.84 0.19,-0.27 0.4,-0.54 0.63,-0.8 0.23,-0.26 0.46,-0.51 0.69,-0.75 0.24,-0.25 0.49,-0.49 0.75,-0.73 0.25,-0.23 0.49,-0.47 0.72,-0.71 0.23,-0.24 0.45,-0.49 0.67,-0.76 0.21,-0.26 0.4,-0.52 0.58,-0.79 0.17,-0.27 0.33,-0.56 0.47,-0.86 0.13,-0.29 0.23,-0.6 0.3,-0.92 0.07,-0.33 0.1,-0.68 0.1,-1.05 0,-0.31 -0.02,-0.62 -0.07,-0.94 -0.05,-0.32 -0.12,-0.64 -0.22,-0.98 -0.1,-0.32 -0.23,-0.63 -0.4,-0.92 -0.17,-0.29 -0.38,-0.58 -0.63,-0.85 -0.5,-0.54 -1.18,-0.99 -2.03,-1.35 -0.86,-0.36 -1.95,-0.54 -3.3,-0.54 -0.57,0 -1.12,0.04 -1.67,0.1 -0.55,0.07 -1.09,0.18 -1.62,0.32 -0.54,0.14 -1.04,0.31 -1.51,0.49 -0.38,0.15 -0.74,0.32 -1.08,0.5l0.95 2.59c0.3,-0.15 0.59,-0.28 0.87,-0.4 0.4,-0.17 0.8,-0.3 1.18,-0.4 0.38,-0.1 0.77,-0.18 1.18,-0.23zm4.27 18.95c0,0.45 -0.08,0.85 -0.22,1.22 -0.15,0.37 -0.38,0.7 -0.68,0.99 -0.3,0.29 -0.63,0.5 -1,0.64 -0.37,0.14 -0.77,0.21 -1.2,0.21 -0.42,0 -0.81,-0.07 -1.18,-0.21 -0.37,-0.14 -0.7,-0.36 -1,-0.64 -0.61,-0.58 -0.92,-1.31 -0.92,-2.22 0,-0.9 0.31,-1.65 0.92,-2.23 0.3,-0.29 0.64,-0.51 1,-0.65 0.37,-0.15 0.76,-0.22 1.18,-0.22 0.44,0 0.84,0.07 1.21,0.22 0.37,0.15 0.7,0.37 1,0.66 0.3,0.29 0.52,0.63 0.68,1 0.15,0.37 0.22,0.78 0.22,1.23zm-0.85 0.97c0.12,-0.29 0.17,-0.61 0.17,-0.97 0,-0.36 -0.06,-0.69 -0.17,-0.98 -0.11,-0.29 -0.29,-0.54 -0.52,-0.77 -0.23,-0.23 -0.49,-0.4 -0.78,-0.51 -0.29,-0.11 -0.61,-0.17 -0.96,-0.17 -0.34,0 -0.65,0.06 -0.94,0.17 -0.28,0.11 -0.55,0.29 -0.79,0.51 -0.47,0.45 -0.71,1.04 -0.71,1.75 0,0.71 0.24,1.29 0.71,1.73 0.24,0.22 0.5,0.39 0.79,0.5 0.29,0.11 0.6,0.17 0.94,0.17 0.35,0 0.67,-0.06 0.96,-0.17 0.29,-0.11 0.55,-0.28 0.78,-0.5 0.23,-0.22 0.4,-0.47 0.52,-0.76z"/>
 </g>
</svg>

<?xml version="1.0" encoding="UTF-8" standalone="no"?>
<!-- Creator: CorelDRAW 2019 (64-Bit) -->

<svg
   xmlns:dc="http://purl.org/dc/elements/1.1/"
   xmlns:cc="http://creativecommons.org/ns#"
   xmlns:rdf="http://www.w3.org/1999/02/22-rdf-syntax-ns#"
   xmlns:svg="http://www.w3.org/2000/svg"
   xmlns="http://www.w3.org/2000/svg"
   xmlns:sodipodi="http://sodipodi.sourceforge.net/DTD/sodipodi-0.dtd"
   xmlns:inkscape="http://www.inkscape.org/namespaces/inkscape"
   xml:space="preserve"
   width="85"
   height="85"
   version="1.1"
   style="clip-rule:evenodd;fill-rule:evenodd;image-rendering:optimizeQuality;shape-rendering:geometricPrecision;text-rendering:geometricPrecision"
   viewBox="0 0 78.081491 78.079111"
   id="svg10"
   sodipodi:docname="us.svg"
   inkscape:version="0.92.3 (2405546, 2018-03-11)"><metadata
   id="metadata14"><rdf:RDF><cc:Work
       rdf:about=""><dc:format>image/svg+xml</dc:format><dc:type
         rdf:resource="http://purl.org/dc/dcmitype/StillImage" /><dc:title></dc:title></cc:Work></rdf:RDF></metadata><sodipodi:namedview
   pagecolor="#ffffff"
   bordercolor="#666666"
   borderopacity="1"
   objecttolerance="10"
   gridtolerance="10"
   guidetolerance="10"
   inkscape:pageopacity="0"
   inkscape:pageshadow="2"
   inkscape:window-width="1920"
   inkscape:window-height="1015"
   id="namedview12"
   showgrid="false"
   units="px"
   inkscape:zoom="8.4483383"
   inkscape:cx="7.6420158"
   inkscape:cy="13.967244"
   inkscape:window-x="1920"
   inkscape:window-y="0"
   inkscape:window-maximized="1"
   inkscape:current-layer="svg10" />
 <defs
   id="defs4">
  <style
   type="text/css"
   id="style2">
   <![CDATA[
    .fil0 {fill:black;fill-rule:nonzero}
   ]]>
  </style>
 </defs>
 <g
   id="Layer_x0020_1"
   style="fill:#12d9e1;fill-opacity:1"
   transform="matrix(2.1496235,0,0,2.1496235,23.93964,11.459886)">
  <metadata
   id="CorelCorpID_0Corel-Layer" />
  <path
   class="fil0"
   d="M 6.23,4.24 C 5.83,4.24 5.45,4.26 5.09,4.31 4.72,4.36 4.36,4.43 4,4.52 3.64,4.61 3.28,4.74 2.91,4.89 2.54,5.04 2.15,5.23 1.76,5.44 L 1.42,5.63 0.01,1.78 0.26,1.64 C 0.7,1.39 1.18,1.16 1.67,0.97 2.17,0.77 2.7,0.6 3.26,0.45 3.82,0.3 4.39,0.19 4.97,0.12 5.55,0.05 6.14,0.01 6.72,0.01 c 1.43,0 2.61,0.2 3.56,0.6 0.95,0.4 1.7,0.91 2.26,1.52 0.28,0.31 0.52,0.63 0.72,0.97 0.2,0.34 0.35,0.7 0.46,1.07 0.11,0.36 0.19,0.71 0.24,1.07 0.05,0.36 0.08,0.7 0.08,1.04 0,0.41 -0.04,0.81 -0.12,1.18 -0.08,0.38 -0.19,0.74 -0.35,1.07 -0.15,0.32 -0.32,0.64 -0.51,0.94 -0.19,0.3 -0.4,0.59 -0.63,0.87 -0.22,0.27 -0.45,0.53 -0.7,0.79 -0.24,0.26 -0.49,0.51 -0.75,0.75 -0.25,0.23 -0.49,0.47 -0.72,0.71 -0.24,0.24 -0.46,0.48 -0.67,0.72 -0.21,0.24 -0.4,0.48 -0.58,0.73 -0.17,0.25 -0.33,0.51 -0.47,0.77 -0.13,0.25 -0.23,0.52 -0.3,0.8 -0.07,0.28 -0.1,0.59 -0.1,0.91 v 0.4 l 0.01,0.19 0.02,0.18 0.07,0.39 H 3.97 L 3.92,17.41 C 3.89,17.28 3.87,17.16 3.86,17.03 3.84,16.89 3.82,16.76 3.81,16.63 L 3.78,16.23 3.77,15.85 c 0,-0.4 0.03,-0.78 0.1,-1.14 C 3.94,14.35 4.04,14 4.18,13.68 4.31,13.36 4.46,13.06 4.63,12.78 4.8,12.49 4.98,12.22 5.19,11.95 5.39,11.69 5.6,11.43 5.81,11.2 6.03,10.95 6.26,10.72 6.48,10.5 6.7,10.28 6.92,10.07 7.13,9.85 7.35,9.62 7.55,9.41 7.73,9.2 7.92,8.99 8.09,8.78 8.24,8.56 8.39,8.35 8.53,8.13 8.65,7.91 8.76,7.7 8.85,7.49 8.9,7.26 8.96,7.03 8.98,6.8 8.98,6.55 8.98,6.21 8.92,5.91 8.81,5.64 8.7,5.37 8.53,5.13 8.3,4.91 8.08,4.7 7.8,4.54 7.46,4.43 7.11,4.32 6.69,4.26 6.2,4.26 Z M 5,3.64 C 5.41,3.59 5.82,3.56 6.23,3.56 6.78,3.56 7.27,3.63 7.69,3.76 8.13,3.9 8.5,4.11 8.79,4.39 9.08,4.67 9.31,4.99 9.45,5.35 9.6,5.71 9.67,6.1 9.67,6.52 9.67,6.82 9.63,7.12 9.56,7.4 9.49,7.68 9.38,7.95 9.24,8.21 9.11,8.45 8.96,8.69 8.78,8.93 8.61,9.16 8.43,9.39 8.22,9.62 8.01,9.85 7.81,10.08 7.6,10.29 7.39,10.51 7.17,10.73 6.94,10.96 6.72,11.18 6.5,11.4 6.3,11.63 6.09,11.86 5.89,12.1 5.71,12.35 5.53,12.59 5.35,12.84 5.2,13.11 5.04,13.38 4.91,13.65 4.79,13.94 4.67,14.22 4.58,14.51 4.53,14.83 4.47,15.15 4.44,15.49 4.44,15.85 l 0.01,0.34 0.03,0.37 0.05,0.44 h 2.95 v -0.49 c 0,-0.37 0.04,-0.72 0.12,-1.06 0.08,-0.34 0.2,-0.66 0.35,-0.96 0.15,-0.29 0.32,-0.57 0.51,-0.84 0.19,-0.27 0.4,-0.54 0.63,-0.8 0.23,-0.26 0.46,-0.51 0.69,-0.75 0.24,-0.25 0.49,-0.49 0.75,-0.73 0.25,-0.23 0.49,-0.47 0.72,-0.71 C 11.48,10.42 11.7,10.17 11.92,9.9 12.13,9.64 12.32,9.38 12.5,9.11 12.67,8.84 12.83,8.55 12.97,8.25 13.1,7.96 13.2,7.65 13.27,7.33 13.34,7 13.37,6.65 13.37,6.28 13.37,5.97 13.35,5.66 13.3,5.34 13.25,5.02 13.18,4.7 13.08,4.36 12.98,4.04 12.85,3.73 12.68,3.44 12.51,3.15 12.3,2.86 12.05,2.59 11.55,2.05 10.87,1.6 10.02,1.24 9.16,0.88 8.07,0.7 6.72,0.7 6.15,0.7 5.6,0.74 5.05,0.8 4.5,0.87 3.96,0.98 3.43,1.12 2.89,1.26 2.39,1.43 1.92,1.61 1.54,1.76 1.18,1.93 0.84,2.11 L 1.79,4.7 C 2.09,4.55 2.38,4.42 2.66,4.3 3.06,4.13 3.46,4 3.84,3.9 4.22,3.8 4.61,3.72 5.02,3.67 Z m 4.27,18.95 c 0,0.45 -0.08,0.85 -0.22,1.22 -0.15,0.37 -0.38,0.7 -0.68,0.99 -0.3,0.29 -0.63,0.5 -1,0.64 C 7,25.58 6.6,25.65 6.17,25.65 5.75,25.65 5.36,25.58 4.99,25.44 4.62,25.3 4.29,25.08 3.99,24.8 3.38,24.22 3.07,23.49 3.07,22.58 c 0,-0.9 0.31,-1.65 0.92,-2.23 0.3,-0.29 0.64,-0.51 1,-0.65 0.37,-0.15 0.76,-0.22 1.18,-0.22 0.44,0 0.84,0.07 1.21,0.22 0.37,0.15 0.7,0.37 1,0.66 0.3,0.29 0.52,0.63 0.68,1 0.15,0.37 0.22,0.78 0.22,1.23 z M 8.42,23.56 C 8.54,23.27 8.59,22.95 8.59,22.59 8.59,22.23 8.53,21.9 8.42,21.61 8.31,21.32 8.13,21.07 7.9,20.84 7.67,20.61 7.41,20.44 7.12,20.33 6.83,20.22 6.51,20.16 6.16,20.16 c -0.34,0 -0.65,0.06 -0.94,0.17 -0.28,0.11 -0.55,0.29 -0.79,0.51 -0.47,0.45 -0.71,1.04 -0.71,1.75 0,0.71 0.24,1.29 0.71,1.73 0.24,0.22 0.5,0.39 0.79,0.5 0.29,0.11 0.6,0.17 0.94,0.17 0.35,0 0.67,-0.06 0.96,-0.17 0.29,-0.11 0.55,-0.28 0.78,-0.5 0.23,-0.22 0.4,-0.47 0.52,-0.76 z"
   id="path7"
   style="fill:#12d9e1;fill-opacity:1;fill-rule:nonzero"
   inkscape:connector-curvature="0" />
 </g>
</svg>
